{
  "type": "map",
  "version": "1.10",
  "tiledversion": "1.10.2",
  "orientation": "orthogonal",
  "renderorder": "right-down",
  "infinite": false,
  "width": 64,
  "height": 42,
  "tilewidth": 32,
  "tileheight": 32,
  "nextlayerid": 4,
  "nextobjectid": 7,
  "properties": [
    {
      "name": "sceneId",
      "type": "string",
      "value": "xueyuan_outdoor_source_crop"
    },
    {
      "name": "sourceRepo",
      "type": "string",
      "value": "https://github.com/RobertYoung446/buaa-simulator"
    },
    {
      "name": "sourceCommit",
      "type": "string",
      "value": "59df24233b64aa0b463fde531ac87051556c5a08"
    },
    {
      "name": "sourceTmjBlob",
      "type": "string",
      "value": "6bf356f2720d3d286008984fc98b3ef52c04587e"
    },
    {
      "name": "sourceMapBlob",
      "type": "string",
      "value": "43f5576d25bcaa2d088f6774b08077cfedd50862"
    },
    {
      "name": "sourceSvgBlob",
      "type": "string",
      "value": "f37468c25e8db473cac7e93775c7624d55e7bc1c"
    },
    {
      "name": "sourceTileX",
      "type": "int",
      "value": 55
    },
    {
      "name": "sourceTileY",
      "type": "int",
      "value": 39
    },
    {
      "name": "metersPerSourceTile",
      "type": "int",
      "value": 8
    },
    {
      "name": "collisionStatus",
      "type": "string",
      "value": "source draft; not gameplay verified"
    },
    {
      "name": "attribution",
      "type": "string",
      "value": "© OpenStreetMap contributors · ODbL 1.0"
    }
  ],
  "tilesets": [
    {
      "firstgid": 1,
      "name": "campus-schematic",
      "tilewidth": 32,
      "tileheight": 32,
      "columns": 6,
      "tilecount": 6,
      "image": "../地图数据/二维版本/tiles.png",
      "imagewidth": 192,
      "imageheight": 32,
      "tiles": [
        {
          "id": 0,
          "properties": [
            {
              "name": "kind",
              "type": "string",
              "value": "ground"
            }
          ]
        },
        {
          "id": 1,
          "properties": [
            {
              "name": "kind",
              "type": "string",
              "value": "green"
            }
          ]
        },
        {
          "id": 2,
          "properties": [
            {
              "name": "kind",
              "type": "string",
              "value": "water"
            }
          ]
        },
        {
          "id": 3,
          "properties": [
            {
              "name": "kind",
              "type": "string",
              "value": "road"
            }
          ]
        },
        {
          "id": 4,
          "properties": [
            {
              "name": "kind",
              "type": "string",
              "value": "building"
            }
          ]
        },
        {
          "id": 5,
          "properties": [
            {
              "name": "kind",
              "type": "string",
              "value": "blocked"
            }
          ]
        }
      ]
    }
  ],
  "layers": [
    {
      "id": 1,
      "name": "ground",
      "type": "tilelayer",
      "width": 64,
      "height": 42,
      "x": 0,
      "y": 0,
      "visible": true,
      "opacity": 1,
      "data": [
        2,
        2,
        2,
        2,
        2,
        2,
        2,
        4,
        2,
        2,
        2,
        4,
        4,
        4,
        2,
        2,
        2,
        4,
        4,
        4,
        4,
        4,
        4,
        4,
        4,
        2,
        4,
        4,
        4,
        1,
        1,
        1,
        5,
        5,
        5,
        5,
        5,
        5,
        5,
        5,
        5,
        1,
        1,
        4,
        2,
        2,
        4,
        4,
        4,
        2,
        4,
        1,
        1,
        5,
        5,
        5,
        5,
        5,
        5,
        5,
        1,
        5,
        5,
        5,
        2,
        2,
        2,
        2,
        2,
        2,
        2,
        4,
        2,
        2,
        2,
        2,
        2,
        4,
        2,
        2,
        4,
        4,
        3,
        3,
        3,
        3,
        4,
        4,
        4,
        2,
        4,
        4,
        4,
        4,
        1,
        1,
        5,
        5,
        5,
        5,
        5,
        5,
        5,
        5,
        5,
        5,
        5,
        4,
        4,
        4,
        4,
        2,
        2,
        4,
        4,
        1,
        1,
        5,
        5,
        5,
        5,
        5,
        5,
        5,
        5,
        5,
        5,
        5,
        2,
        2,
        2,
        2,
        2,
        2,
        2,
        4,
        2,
        2,
        2,
        2,
        2,
        4,
        2,
        2,
        4,
        3,
        3,
        3,
        3,
        3,
        3,
        4,
        4,
        2,
        4,
        4,
        1,
        4,
        5,
        1,
        5,
        5,
        5,
        5,
        5,
        5,
        5,
        5,
        5,
        5,
        5,
        4,
        2,
        2,
        4,
        2,
        2,
        4,
        4,
        4,
        4,
        5,
        5,
        5,
        5,
        5,
        5,
        5,
        5,
        5,
        5,
        5,
        2,
        2,
        2,
        2,
        2,
        2,
        4,
        4,
        4,
        2,
        2,
        2,
        4,
        2,
        2,
        2,
        4,
        3,
        3,
        3,
        3,
        3,
        3,
        3,
        4,
        2,
        4,
        4,
        1,
        4,
        5,
        5,
        5,
        5,
        5,
        5,
        5,
        5,
        5,
        5,
        5,
        5,
        5,
        4,
        2,
        2,
        4,
        2,
        2,
        4,
        4,
        1,
        1,
        5,
        5,
        5,
        5,
        5,
        5,
        5,
        1,
        5,
        5,
        5,
        2,
        2,
        2,
        2,
        2,
        2,
        4,
        2,
        2,
        4,
        4,
        4,
        4,
        2,
        2,
        2,
        4,
        4,
        3,
        3,
        3,
        3,
        3,
        3,
        4,
        2,
        4,
        4,
        1,
        4,
        5,
        5,
        5,
        5,
        5,
        5,
        5,
        5,
        5,
        5,
        5,
        5,
        5,
        5,
        2,
        2,
        4,
        2,
        2,
        4,
        4,
        1,
        1,
        5,
        5,
        5,
        1,
        1,
        1,
        1,
        1,
        5,
        5,
        5,
        2,
        2,
        2,
        2,
        2,
        2,
        4,
        2,
        4,
        4,
        2,
        2,
        4,
        2,
        2,
        2,
        2,
        4,
        4,
        3,
        3,
        3,
        3,
        3,
        4,
        2,
        4,
        4,
        1,
        4,
        5,
        5,
        5,
        5,
        5,
        5,
        5,
        5,
        5,
        5,
        5,
        5,
        5,
        5,
        2,
        4,
        4,
        4,
        4,
        4,
        4,
        1,
        1,
        1,
        1,
        1,
        1,
        1,
        1,
        1,
        1,
        5,
        5,
        5,
        2,
        2,
        2,
        2,
        2,
        2,
        4,
        4,
        4,
        2,
        2,
        4,
        4,
        2,
        2,
        2,
        2,
        2,
        4,
        3,
        3,
        3,
        3,
        3,
        4,
        2,
        4,
        4,
        1,
        4,
        5,
        5,
        5,
        5,
        5,
        5,
        5,
        5,
        5,
        5,
        5,
        5,
        5,
        5,
        4,
        2,
        4,
        2,
        2,
        4,
        4,
        1,
        1,
        5,
        5,
        1,
        1,
        1,
        1,
        1,
        1,
        5,
        5,
        5,
        2,
        2,
        2,
        2,
        2,
        2,
        2,
        4,
        2,
        4,
        4,
        2,
        2,
        2,
        2,
        2,
        2,
        2,
        4,
        3,
        3,
        3,
        3,
        3,
        4,
        2,
        4,
        4,
        1,
        4,
        5,
        5,
        5,
        5,
        5,
        5,
        5,
        5,
        5,
        5,
        5,
        5,
        5,
        4,
        2,
        2,
        4,
        2,
        2,
        4,
        4,
        1,
        1,
        5,
        5,
        5,
        5,
        5,
        5,
        5,
        5,
        5,
        5,
        5,
        2,
        2,
        2,
        2,
        2,
        2,
        2,
        2,
        4,
        4,
        4,
        2,
        2,
        2,
        2,
        2,
        2,
        2,
        4,
        4,
        3,
        3,
        3,
        3,
        4,
        2,
        4,
        4,
        1,
        4,
        5,
        5,
        5,
        5,
        5,
        5,
        5,
        5,
        5,
        5,
        5,
        5,
        5,
        4,
        2,
        2,
        4,
        2,
        2,
        4,
        4,
        1,
        1,
        5,
        5,
        5,
        5,
        5,
        5,
        5,
        5,
        5,
        5,
        5,
        2,
        2,
        2,
        2,
        2,
        2,
        2,
        2,
        4,
        4,
        4,
        2,
        2,
        2,
        2,
        2,
        2,
        2,
        2,
        4,
        3,
        3,
        3,
        3,
        4,
        2,
        4,
        4,
        1,
        4,
        1,
        5,
        5,
        5,
        5,
        5,
        5,
        5,
        5,
        5,
        4,
        4,
        4,
        4,
        4,
        2,
        4,
        2,
        2,
        4,
        4,
        1,
        1,
        5,
        5,
        5,
        5,
        5,
        5,
        5,
        5,
        5,
        5,
        5,
        2,
        2,
        2,
        2,
        2,
        2,
        2,
        2,
        4,
        4,
        2,
        4,
        4,
        2,
        4,
        4,
        4,
        4,
        2,
        4,
        3,
        3,
        3,
        3,
        4,
        4,
        4,
        4,
        1,
        4,
        4,
        4,
        4,
        4,
        4,
        4,
        4,
        4,
        1,
        1,
        4,
        1,
        1,
        1,
        4,
        4,
        4,
        4,
        4,
        4,
        4,
        1,
        1,
        1,
        1,
        1,
        1,
        1,
        1,
        1,
        1,
        5,
        1,
        5,
        2,
        2,
        2,
        2,
        2,
        2,
        2,
        2,
        4,
        2,
        2,
        2,
        4,
        4,
        2,
        2,
        2,
        4,
        2,
        4,
        4,
        2,
        4,
        4,
        4,
        2,
        4,
        4,
        1,
        1,
        1,
        1,
        1,
        4,
        1,
        1,
        1,
        1,
        1,
        1,
        4,
        1,
        1,
        1,
        4,
        2,
        2,
        2,
        2,
        2,
        4,
        1,
        1,
        1,
        1,
        1,
        1,
        1,
        1,
        1,
        1,
        5,
        1,
        1,
        2,
        2,
        2,
        2,
        2,
        2,
        2,
        2,
        4,
        4,
        4,
        4,
        4,
        2,
        2,
        2,
        2,
        4,
        4,
        4,
        4,
        4,
        4,
        2,
        2,
        1,
        4,
        4,
        1,
        1,
        1,
        1,
        1,
        4,
        1,
        1,
        1,
        1,
        1,
        1,
        4,
        1,
        4,
        4,
        4,
        4,
        4,
        4,
        4,
        4,
        4,
        4,
        4,
        4,
        4,
        4,
        4,
        4,
        4,
        4,
        4,
        5,
        4,
        4,
        2,
        2,
        2,
        2,
        2,
        2,
        2,
        2,
        4,
        2,
        2,
        4,
        4,
        4,
        4,
        4,
        4,
        4,
        4,
        4,
        4,
        4,
        4,
        4,
        4,
        4,
        4,
        4,
        4,
        4,
        4,
        4,
        4,
        4,
        4,
        4,
        4,
        4,
        4,
        4,
        4,
        4,
        4,
        1,
        4,
        1,
        1,
        1,
        1,
        1,
        1,
        1,
        1,
        1,
        1,
        1,
        1,
        1,
        1,
        1,
        1,
        5,
        1,
        5,
        4,
        4,
        4,
        4,
        4,
        4,
        4,
        4,
        4,
        4,
        4,
        4,
        4,
        4,
        4,
        4,
        4,
        4,
        4,
        4,
        4,
        4,
        4,
        4,
        4,
        4,
        4,
        4,
        1,
        1,
        1,
        1,
        1,
        4,
        1,
        1,
        1,
        1,
        4,
        1,
        1,
        1,
        1,
        1,
        4,
        1,
        5,
        5,
        1,
        1,
        1,
        1,
        1,
        1,
        1,
        1,
        1,
        1,
        5,
        5,
        1,
        5,
        1,
        5,
        4,
        4,
        4,
        4,
        4,
        4,
        4,
        4,
        4,
        4,
        4,
        4,
        4,
        4,
        4,
        4,
        4,
        4,
        4,
        4,
        4,
        1,
        1,
        1,
        1,
        1,
        4,
        4,
        4,
        1,
        1,
        1,
        1,
        4,
        1,
        1,
        1,
        1,
        4,
        1,
        1,
        1,
        1,
        1,
        4,
        1,
        5,
        5,
        5,
        5,
        5,
        5,
        5,
        5,
        5,
        5,
        5,
        5,
        5,
        5,
        1,
        5,
        1,
        5,
        5,
        5,
        5,
        5,
        5,
        5,
        1,
        1,
        4,
        1,
        5,
        5,
        5,
        5,
        5,
        5,
        1,
        4,
        1,
        5,
        5,
        5,
        5,
        5,
        5,
        5,
        4,
        4,
        4,
        1,
        1,
        1,
        1,
        4,
        1,
        1,
        1,
        1,
        4,
        1,
        1,
        1,
        1,
        1,
        4,
        1,
        5,
        5,
        5,
        5,
        5,
        5,
        5,
        5,
        5,
        5,
        5,
        5,
        5,
        5,
        5,
        5,
        5,
        5,
        5,
        5,
        5,
        5,
        5,
        5,
        1,
        1,
        4,
        1,
        5,
        5,
        5,
        5,
        5,
        5,
        1,
        4,
        5,
        4,
        1,
        1,
        1,
        1,
        5,
        5,
        4,
        4,
        4,
        1,
        1,
        1,
        1,
        4,
        1,
        1,
        1,
        1,
        4,
        1,
        1,
        1,
        1,
        1,
        4,
        4,
        5,
        5,
        5,
        5,
        5,
        5,
        5,
        5,
        5,
        5,
        5,
        5,
        5,
        5,
        1,
        4,
        1,
        5,
        1,
        1,
        1,
        1,
        1,
        5,
        1,
        1,
        4,
        1,
        1,
        1,
        1,
        1,
        1,
        1,
        1,
        4,
        5,
        4,
        1,
        1,
        1,
        1,
        5,
        5,
        4,
        4,
        4,
        1,
        1,
        1,
        1,
        4,
        1,
        1,
        1,
        1,
        4,
        1,
        1,
        1,
        1,
        1,
        1,
        4,
        5,
        5,
        1,
        1,
        1,
        1,
        1,
        1,
        1,
        1,
        1,
        1,
        5,
        5,
        1,
        4,
        1,
        1,
        4,
        4,
        4,
        4,
        4,
        4,
        4,
        4,
        4,
        4,
        4,
        4,
        4,
        4,
        4,
        4,
        4,
        4,
        4,
        4,
        4,
        4,
        4,
        4,
        4,
        4,
        4,
        4,
        4,
        1,
        1,
        1,
        1,
        4,
        1,
        1,
        1,
        1,
        4,
        1,
        1,
        1,
        1,
        4,
        4,
        4,
        4,
        4,
        4,
        4,
        4,
        4,
        4,
        4,
        4,
        4,
        4,
        4,
        4,
        4,
        4,
        4,
        4,
        4,
        1,
        1,
        1,
        1,
        1,
        1,
        1,
        4,
        1,
        4,
        1,
        1,
        1,
        1,
        1,
        1,
        1,
        5,
        1,
        1,
        4,
        5,
        5,
        5,
        5,
        5,
        1,
        4,
        4,
        1,
        1,
        1,
        1,
        4,
        4,
        4,
        4,
        4,
        4,
        4,
        4,
        4,
        4,
        4,
        1,
        4,
        1,
        1,
        1,
        1,
        1,
        1,
        4,
        1,
        1,
        1,
        1,
        1,
        1,
        1,
        1,
        1,
        1,
        1,
        1,
        1,
        1,
        1,
        1,
        1,
        1,
        4,
        2,
        4,
        5,
        5,
        5,
        5,
        5,
        5,
        5,
        5,
        1,
        1,
        4,
        5,
        5,
        5,
        5,
        1,
        1,
        4,
        4,
        1,
        1,
        1,
        1,
        1,
        1,
        1,
        4,
        1,
        1,
        1,
        1,
        1,
        1,
        1,
        1,
        4,
        1,
        1,
        5,
        5,
        5,
        1,
        4,
        5,
        5,
        5,
        5,
        5,
        5,
        5,
        5,
        5,
        5,
        5,
        5,
        5,
        5,
        5,
        5,
        5,
        5,
        4,
        2,
        4,
        5,
        5,
        5,
        5,
        5,
        5,
        5,
        5,
        1,
        1,
        4,
        5,
        5,
        5,
        1,
        1,
        1,
        4,
        4,
        1,
        1,
        1,
        1,
        1,
        1,
        1,
        4,
        1,
        1,
        1,
        1,
        1,
        1,
        1,
        1,
        4,
        1,
        1,
        5,
        5,
        5,
        1,
        4,
        5,
        5,
        5,
        5,
        5,
        5,
        5,
        5,
        5,
        5,
        5,
        5,
        5,
        5,
        5,
        5,
        5,
        5,
        4,
        2,
        4,
        1,
        1,
        1,
        1,
        1,
        1,
        1,
        1,
        1,
        1,
        4,
        5,
        5,
        1,
        1,
        1,
        1,
        4,
        4,
        1,
        5,
        1,
        1,
        1,
        1,
        1,
        4,
        1,
        1,
        1,
        1,
        1,
        5,
        5,
        1,
        4,
        4,
        1,
        5,
        5,
        5,
        1,
        4,
        5,
        5,
        5,
        5,
        5,
        5,
        5,
        5,
        5,
        5,
        5,
        4,
        4,
        4,
        4,
        4,
        4,
        4,
        4,
        4,
        4,
        4,
        4,
        4,
        4,
        4,
        4,
        4,
        4,
        4,
        4,
        4,
        1,
        1,
        1,
        1,
        1,
        1,
        4,
        4,
        1,
        5,
        1,
        1,
        1,
        1,
        1,
        4,
        1,
        1,
        1,
        1,
        1,
        1,
        5,
        1,
        1,
        4,
        4,
        4,
        4,
        4,
        5,
        4,
        5,
        5,
        5,
        5,
        5,
        5,
        5,
        5,
        1,
        1,
        1,
        1,
        1,
        1,
        1,
        1,
        1,
        1,
        4,
        4,
        4,
        4,
        1,
        1,
        1,
        5,
        5,
        5,
        5,
        5,
        5,
        4,
        4,
        4,
        4,
        4,
        5,
        5,
        4,
        4,
        1,
        5,
        5,
        5,
        5,
        5,
        5,
        5,
        5,
        5,
        5,
        5,
        5,
        5,
        5,
        1,
        1,
        4,
        1,
        5,
        5,
        1,
        5,
        4,
        5,
        5,
        5,
        5,
        5,
        5,
        5,
        5,
        1,
        1,
        1,
        1,
        5,
        5,
        5,
        5,
        5,
        4,
        4,
        4,
        4,
        4,
        1,
        5,
        5,
        5,
        5,
        5,
        5,
        5,
        5,
        4,
        1,
        5,
        5,
        5,
        5,
        5,
        4,
        4,
        1,
        5,
        5,
        5,
        5,
        5,
        5,
        5,
        5,
        5,
        5,
        5,
        5,
        5,
        5,
        1,
        1,
        4,
        1,
        5,
        5,
        1,
        5,
        4,
        5,
        5,
        5,
        5,
        5,
        5,
        5,
        5,
        1,
        1,
        1,
        5,
        5,
        5,
        5,
        5,
        5,
        4,
        4,
        1,
        4,
        4,
        1,
        5,
        1,
        1,
        1,
        1,
        1,
        1,
        1,
        4,
        5,
        5,
        5,
        5,
        5,
        1,
        4,
        4,
        1,
        5,
        1,
        1,
        1,
        1,
        1,
        1,
        1,
        1,
        1,
        1,
        1,
        5,
        5,
        1,
        1,
        4,
        1,
        5,
        5,
        1,
        5,
        4,
        5,
        5,
        5,
        5,
        5,
        5,
        5,
        5,
        1,
        1,
        1,
        4,
        4,
        4,
        4,
        4,
        4,
        4,
        4,
        4,
        4,
        4,
        4,
        4,
        4,
        4,
        4,
        4,
        4,
        4,
        4,
        4,
        1,
        1,
        1,
        1,
        4,
        4,
        4,
        4,
        4,
        4,
        4,
        4,
        4,
        4,
        4,
        4,
        4,
        4,
        4,
        4,
        4,
        4,
        4,
        4,
        4,
        4,
        1,
        5,
        5,
        5,
        4,
        4,
        5,
        5,
        5,
        5,
        5,
        5,
        5,
        5,
        1,
        1,
        1,
        1,
        1,
        1,
        1,
        4,
        4,
        1,
        4,
        1,
        4,
        1,
        4,
        4,
        4,
        4,
        4,
        4,
        4,
        2,
        1,
        4,
        4,
        4,
        4,
        4,
        1,
        1,
        4,
        4,
        1,
        1,
        1,
        5,
        5,
        1,
        1,
        4,
        4,
        1,
        1,
        5,
        5,
        1,
        1,
        1,
        1,
        4,
        4,
        4,
        4,
        4,
        1,
        4,
        5,
        5,
        5,
        5,
        5,
        5,
        5,
        5,
        1,
        1,
        1,
        4,
        4,
        4,
        4,
        4,
        1,
        1,
        4,
        2,
        4,
        1,
        2,
        2,
        2,
        2,
        2,
        4,
        4,
        2,
        1,
        4,
        5,
        5,
        5,
        5,
        5,
        5,
        4,
        4,
        1,
        1,
        1,
        5,
        5,
        1,
        1,
        1,
        4,
        1,
        1,
        1,
        1,
        1,
        1,
        1,
        4,
        4,
        1,
        5,
        5,
        5,
        5,
        5,
        5,
        5,
        5,
        5,
        5,
        5,
        5,
        5,
        1,
        5,
        5,
        1,
        1,
        1,
        1,
        1,
        1,
        1,
        4,
        2,
        4,
        1,
        1,
        1,
        1,
        1,
        1,
        1,
        1,
        5,
        1,
        4,
        5,
        5,
        5,
        5,
        5,
        5,
        4,
        4,
        4,
        4,
        4,
        4,
        4,
        4,
        4,
        4,
        4,
        4,
        4,
        4,
        4,
        4,
        4,
        4,
        1,
        4,
        1,
        5,
        5,
        5,
        5,
        5,
        5,
        5,
        5,
        5,
        5,
        5,
        5,
        5,
        1,
        1,
        5,
        5,
        5,
        5,
        5,
        5,
        5,
        5,
        4,
        2,
        4,
        4,
        5,
        5,
        5,
        5,
        5,
        5,
        5,
        5,
        5,
        4,
        5,
        5,
        5,
        5,
        5,
        5,
        4,
        4,
        1,
        5,
        5,
        5,
        5,
        5,
        5,
        1,
        4,
        1,
        5,
        5,
        5,
        5,
        5,
        5,
        1,
        4,
        1,
        5,
        5,
        5,
        5,
        5,
        4,
        5,
        5,
        5,
        5,
        5,
        5,
        5,
        1,
        1,
        5,
        5,
        5,
        5,
        5,
        5,
        5,
        5,
        4,
        2,
        2,
        4,
        1,
        1,
        1,
        1,
        4,
        1,
        1,
        5,
        5,
        4,
        1,
        1,
        1,
        1,
        1,
        1,
        4,
        4,
        1,
        5,
        5,
        5,
        5,
        5,
        1,
        1,
        4,
        1,
        5,
        5,
        5,
        5,
        5,
        5,
        1,
        4,
        1,
        5,
        5,
        5,
        5,
        5,
        4,
        5,
        5,
        5,
        5,
        5,
        5,
        5,
        1,
        1,
        5,
        2,
        2,
        4,
        2,
        2,
        2,
        2,
        4,
        2,
        2,
        4,
        2,
        2,
        4,
        2,
        4,
        2,
        2,
        1,
        1,
        4,
        1,
        1,
        1,
        1,
        1,
        1,
        4,
        4,
        1,
        5,
        1,
        1,
        1,
        1,
        1,
        1,
        4,
        1,
        5,
        5,
        5,
        5,
        5,
        5,
        1,
        4,
        1,
        5,
        5,
        5,
        5,
        5,
        4,
        5,
        5,
        5,
        5,
        5,
        5,
        5,
        1,
        1,
        5,
        4,
        4,
        4,
        4,
        4,
        4,
        4,
        4,
        4,
        4,
        4,
        4,
        4,
        4,
        4,
        4,
        4,
        4,
        4,
        4,
        4,
        4,
        4,
        4,
        4,
        4,
        4,
        4,
        4,
        1,
        5,
        1,
        1,
        1,
        1,
        1,
        1,
        4,
        1,
        5,
        5,
        5,
        5,
        5,
        5,
        1,
        4,
        1,
        1,
        1,
        1,
        1,
        1,
        4,
        5,
        5,
        5,
        5,
        5,
        5,
        5,
        1,
        1,
        5,
        4,
        4,
        4,
        4,
        1,
        1,
        1,
        1,
        1,
        4,
        1,
        1,
        1,
        1,
        1,
        1,
        1,
        4,
        4,
        2,
        2,
        4,
        1,
        2,
        2,
        2,
        5,
        4,
        4,
        1,
        5,
        5,
        5,
        5,
        5,
        5,
        1,
        4,
        1,
        5,
        5,
        5,
        5,
        5,
        5,
        1,
        4,
        1,
        1,
        1,
        1,
        1,
        1,
        4,
        1,
        1,
        1,
        1,
        1,
        1,
        1,
        1,
        1,
        1,
        4,
        1,
        1,
        1,
        1,
        1,
        5,
        5,
        5,
        5,
        5,
        5,
        5,
        5,
        5,
        5,
        5,
        4,
        5,
        5,
        5,
        5,
        5,
        5,
        5,
        5,
        5,
        4,
        4,
        1,
        5,
        5,
        5,
        5,
        5,
        5,
        1,
        4,
        1,
        5,
        5,
        5,
        5,
        5,
        1,
        1,
        4,
        1,
        1,
        1,
        1,
        1,
        4,
        4,
        4,
        4,
        4,
        4,
        4,
        4,
        4,
        4,
        4,
        4,
        4,
        1,
        5,
        5,
        5,
        5,
        1,
        1,
        1,
        4,
        1,
        1,
        1,
        5,
        5,
        5,
        5,
        4,
        5,
        5,
        5,
        5,
        5,
        5,
        5,
        5,
        5,
        4,
        4,
        1,
        1,
        1,
        1,
        1,
        1,
        1,
        1,
        4,
        1,
        1,
        1,
        1,
        1,
        1,
        1,
        1,
        4,
        4,
        4,
        4,
        4,
        4,
        4,
        1,
        1,
        1,
        1,
        4,
        1,
        1,
        1,
        1,
        4,
        4,
        4,
        1,
        1,
        1,
        1,
        1,
        1,
        1,
        1,
        4,
        1,
        1,
        1,
        1,
        1,
        1,
        1,
        4,
        1,
        1,
        1,
        1,
        1,
        1,
        1,
        1,
        4,
        4,
        4,
        1,
        1,
        1,
        1,
        1,
        1,
        1,
        1,
        4,
        4,
        4,
        4,
        4,
        4,
        4,
        4,
        4,
        4,
        4,
        4,
        4,
        4,
        4,
        4,
        4,
        4,
        4,
        4,
        4,
        4,
        4,
        4,
        4,
        4,
        4,
        4,
        1,
        1,
        1,
        1,
        1,
        1,
        1,
        1,
        4,
        1,
        1,
        1,
        4,
        4,
        4,
        4,
        4,
        4,
        4,
        4,
        4,
        4,
        4,
        4,
        4,
        4,
        4,
        4,
        4,
        4,
        4,
        4,
        4,
        4,
        4,
        4,
        4,
        4,
        4,
        4,
        4,
        4,
        4,
        4,
        4,
        4,
        4,
        4,
        4,
        4,
        4,
        4,
        4,
        4,
        4,
        4,
        4,
        4,
        4,
        4,
        4,
        4,
        4,
        4,
        4,
        4,
        4,
        4,
        4,
        4,
        4,
        4,
        4,
        4,
        4,
        4,
        4,
        4,
        4,
        4,
        4,
        4,
        4,
        4,
        4,
        4,
        4,
        4,
        4,
        4,
        4,
        4,
        4,
        4,
        4,
        4,
        4,
        4,
        1,
        4,
        4,
        4,
        4,
        4,
        4,
        4,
        4,
        4,
        4,
        4,
        4,
        4,
        4,
        4,
        4,
        4,
        4,
        4,
        4,
        4,
        4,
        4,
        4,
        4,
        4,
        1,
        1
      ]
    },
    {
      "id": 2,
      "name": "collision_draft",
      "type": "tilelayer",
      "width": 64,
      "height": 42,
      "x": 0,
      "y": 0,
      "visible": false,
      "opacity": 0.5,
      "data": [
        0,
        0,
        0,
        0,
        0,
        0,
        0,
        0,
        0,
        0,
        0,
        0,
        0,
        0,
        0,
        0,
        0,
        0,
        0,
        0,
        0,
        0,
        0,
        0,
        0,
        0,
        0,
        0,
        0,
        0,
        0,
        0,
        6,
        6,
        6,
        6,
        6,
        6,
        6,
        6,
        6,
        0,
        0,
        0,
        0,
        0,
        0,
        0,
        0,
        0,
        0,
        0,
        0,
        6,
        6,
        6,
        6,
        6,
        6,
        6,
        0,
        6,
        6,
        6,
        0,
        0,
        0,
        0,
        0,
        0,
        0,
        0,
        0,
        0,
        0,
        0,
        0,
        0,
        0,
        0,
        0,
        0,
        6,
        6,
        6,
        6,
        0,
        0,
        0,
        0,
        0,
        0,
        0,
        0,
        0,
        0,
        6,
        6,
        6,
        6,
        6,
        6,
        6,
        6,
        6,
        6,
        6,
        0,
        0,
        0,
        0,
        0,
        0,
        0,
        0,
        0,
        0,
        6,
        6,
        6,
        6,
        6,
        6,
        6,
        6,
        6,
        6,
        6,
        0,
        0,
        0,
        0,
        0,
        0,
        0,
        0,
        0,
        0,
        0,
        0,
        0,
        0,
        0,
        0,
        0,
        6,
        6,
        6,
        6,
        6,
        6,
        0,
        0,
        0,
        0,
        0,
        0,
        0,
        6,
        0,
        6,
        6,
        6,
        6,
        6,
        6,
        6,
        6,
        6,
        6,
        6,
        0,
        0,
        0,
        0,
        0,
        0,
        0,
        0,
        0,
        0,
        6,
        6,
        6,
        6,
        6,
        6,
        6,
        6,
        6,
        6,
        6,
        0,
        0,
        0,
        0,
        0,
        0,
        0,
        0,
        0,
        0,
        0,
        0,
        0,
        0,
        0,
        0,
        0,
        6,
        6,
        6,
        6,
        6,
        6,
        6,
        0,
        0,
        0,
        0,
        0,
        0,
        6,
        6,
        6,
        6,
        6,
        6,
        6,
        6,
        6,
        6,
        6,
        6,
        6,
        0,
        0,
        0,
        0,
        0,
        0,
        0,
        0,
        0,
        0,
        6,
        6,
        6,
        6,
        6,
        6,
        6,
        0,
        6,
        6,
        6,
        0,
        0,
        0,
        0,
        0,
        0,
        0,
        0,
        0,
        0,
        0,
        0,
        0,
        0,
        0,
        0,
        0,
        0,
        6,
        6,
        6,
        6,
        6,
        6,
        0,
        0,
        0,
        0,
        0,
        0,
        6,
        6,
        6,
        6,
        6,
        6,
        6,
        6,
        6,
        6,
        6,
        6,
        6,
        6,
        0,
        0,
        0,
        0,
        0,
        0,
        0,
        0,
        0,
        6,
        6,
        6,
        0,
        0,
        0,
        0,
        0,
        6,
        6,
        6,
        0,
        0,
        0,
        0,
        0,
        0,
        0,
        0,
        0,
        0,
        0,
        0,
        0,
        0,
        0,
        0,
        0,
        0,
        6,
        6,
        6,
        6,
        6,
        6,
        0,
        0,
        0,
        0,
        0,
        0,
        6,
        6,
        6,
        6,
        6,
        6,
        6,
        6,
        6,
        6,
        6,
        6,
        6,
        6,
        0,
        0,
        0,
        0,
        0,
        0,
        0,
        0,
        0,
        0,
        0,
        0,
        0,
        0,
        0,
        0,
        0,
        6,
        6,
        6,
        0,
        0,
        0,
        0,
        0,
        0,
        0,
        0,
        0,
        0,
        0,
        0,
        0,
        0,
        0,
        0,
        0,
        0,
        0,
        6,
        6,
        6,
        6,
        6,
        0,
        0,
        0,
        0,
        0,
        0,
        6,
        6,
        6,
        6,
        6,
        6,
        6,
        6,
        6,
        6,
        6,
        6,
        6,
        6,
        0,
        0,
        0,
        0,
        0,
        0,
        0,
        0,
        0,
        6,
        6,
        0,
        0,
        0,
        0,
        0,
        0,
        6,
        6,
        6,
        0,
        0,
        0,
        0,
        0,
        0,
        0,
        0,
        0,
        0,
        0,
        0,
        0,
        0,
        0,
        0,
        0,
        0,
        0,
        6,
        6,
        6,
        6,
        6,
        0,
        0,
        0,
        0,
        0,
        0,
        6,
        6,
        6,
        6,
        6,
        6,
        6,
        6,
        6,
        6,
        6,
        6,
        6,
        0,
        0,
        0,
        0,
        0,
        0,
        0,
        0,
        0,
        0,
        6,
        6,
        6,
        6,
        6,
        6,
        6,
        6,
        6,
        6,
        6,
        0,
        0,
        0,
        0,
        0,
        0,
        0,
        0,
        0,
        0,
        0,
        0,
        0,
        0,
        0,
        0,
        0,
        0,
        0,
        6,
        6,
        6,
        6,
        6,
        0,
        0,
        0,
        0,
        0,
        0,
        6,
        6,
        6,
        6,
        6,
        6,
        6,
        6,
        6,
        6,
        6,
        6,
        6,
        0,
        0,
        0,
        0,
        0,
        0,
        0,
        0,
        0,
        0,
        6,
        6,
        6,
        6,
        6,
        6,
        6,
        6,
        6,
        6,
        6,
        0,
        0,
        0,
        0,
        0,
        0,
        0,
        0,
        0,
        0,
        0,
        0,
        0,
        0,
        0,
        0,
        0,
        0,
        0,
        0,
        6,
        6,
        6,
        6,
        0,
        0,
        0,
        0,
        0,
        0,
        0,
        6,
        6,
        6,
        6,
        6,
        6,
        6,
        6,
        6,
        0,
        0,
        0,
        0,
        0,
        0,
        0,
        0,
        0,
        0,
        0,
        0,
        0,
        6,
        6,
        6,
        6,
        6,
        6,
        6,
        6,
        6,
        6,
        6,
        0,
        0,
        0,
        0,
        0,
        0,
        0,
        0,
        0,
        0,
        0,
        0,
        0,
        0,
        0,
        0,
        0,
        0,
        0,
        0,
        6,
        6,
        6,
        6,
        0,
        0,
        0,
        0,
        0,
        0,
        0,
        0,
        0,
        0,
        0,
        0,
        0,
        0,
        0,
        0,
        0,
        0,
        0,
        0,
        0,
        0,
        0,
        0,
        0,
        0,
        0,
        0,
        0,
        0,
        0,
        0,
        0,
        0,
        0,
        0,
        0,
        6,
        0,
        6,
        0,
        0,
        0,
        0,
        0,
        0,
        0,
        0,
        0,
        0,
        0,
        0,
        0,
        0,
        0,
        0,
        0,
        0,
        0,
        0,
        0,
        0,
        0,
        0,
        0,
        0,
        0,
        0,
        0,
        0,
        0,
        0,
        0,
        0,
        0,
        0,
        0,
        0,
        0,
        0,
        0,
        0,
        0,
        0,
        0,
        0,
        0,
        0,
        0,
        0,
        0,
        0,
        0,
        0,
        0,
        0,
        0,
        0,
        0,
        0,
        0,
        6,
        0,
        0,
        0,
        0,
        0,
        0,
        0,
        0,
        0,
        0,
        0,
        0,
        0,
        0,
        0,
        0,
        0,
        0,
        0,
        0,
        0,
        0,
        0,
        0,
        0,
        0,
        0,
        0,
        0,
        0,
        0,
        0,
        0,
        0,
        0,
        0,
        0,
        0,
        0,
        0,
        0,
        0,
        0,
        0,
        0,
        0,
        0,
        0,
        0,
        0,
        0,
        0,
        0,
        0,
        0,
        0,
        0,
        0,
        0,
        0,
        0,
        0,
        0,
        6,
        0,
        0,
        0,
        0,
        0,
        0,
        0,
        0,
        0,
        0,
        0,
        0,
        0,
        0,
        0,
        0,
        0,
        0,
        0,
        0,
        0,
        0,
        0,
        0,
        0,
        0,
        0,
        0,
        0,
        0,
        0,
        0,
        0,
        0,
        0,
        0,
        0,
        0,
        0,
        0,
        0,
        0,
        0,
        0,
        0,
        0,
        0,
        0,
        0,
        0,
        0,
        0,
        0,
        0,
        0,
        0,
        0,
        0,
        0,
        0,
        0,
        0,
        0,
        6,
        0,
        6,
        0,
        0,
        0,
        0,
        0,
        0,
        0,
        0,
        0,
        0,
        0,
        0,
        0,
        0,
        0,
        0,
        0,
        0,
        0,
        0,
        0,
        0,
        0,
        0,
        0,
        0,
        0,
        0,
        0,
        0,
        0,
        0,
        0,
        0,
        0,
        0,
        0,
        0,
        0,
        0,
        0,
        0,
        0,
        0,
        0,
        0,
        6,
        6,
        0,
        0,
        0,
        0,
        0,
        0,
        0,
        0,
        0,
        0,
        6,
        6,
        0,
        6,
        0,
        6,
        0,
        0,
        0,
        0,
        0,
        0,
        0,
        0,
        0,
        0,
        0,
        0,
        0,
        0,
        0,
        0,
        0,
        0,
        0,
        0,
        0,
        0,
        0,
        0,
        0,
        0,
        0,
        0,
        0,
        0,
        0,
        0,
        0,
        0,
        0,
        0,
        0,
        0,
        0,
        0,
        0,
        0,
        0,
        0,
        0,
        0,
        6,
        6,
        6,
        6,
        6,
        6,
        6,
        6,
        6,
        6,
        6,
        6,
        6,
        6,
        0,
        6,
        0,
        6,
        6,
        6,
        6,
        6,
        6,
        6,
        0,
        0,
        0,
        0,
        6,
        6,
        6,
        6,
        6,
        6,
        0,
        0,
        0,
        6,
        6,
        6,
        6,
        6,
        6,
        6,
        0,
        0,
        0,
        0,
        0,
        0,
        0,
        0,
        0,
        0,
        0,
        0,
        0,
        0,
        0,
        0,
        0,
        0,
        0,
        0,
        6,
        6,
        6,
        6,
        6,
        6,
        6,
        6,
        6,
        6,
        6,
        6,
        6,
        6,
        6,
        6,
        6,
        6,
        6,
        6,
        6,
        6,
        6,
        6,
        0,
        0,
        0,
        0,
        6,
        6,
        6,
        6,
        6,
        6,
        0,
        0,
        6,
        0,
        0,
        0,
        0,
        0,
        6,
        6,
        0,
        0,
        0,
        0,
        0,
        0,
        0,
        0,
        0,
        0,
        0,
        0,
        0,
        0,
        0,
        0,
        0,
        0,
        0,
        0,
        6,
        6,
        6,
        6,
        6,
        6,
        6,
        6,
        6,
        6,
        6,
        6,
        6,
        6,
        0,
        0,
        0,
        6,
        0,
        0,
        0,
        0,
        0,
        6,
        0,
        0,
        0,
        0,
        0,
        0,
        0,
        0,
        0,
        0,
        0,
        0,
        6,
        0,
        0,
        0,
        0,
        0,
        6,
        6,
        0,
        0,
        0,
        0,
        0,
        0,
        0,
        0,
        0,
        0,
        0,
        0,
        0,
        0,
        0,
        0,
        0,
        0,
        0,
        0,
        6,
        6,
        0,
        0,
        0,
        0,
        0,
        0,
        0,
        0,
        0,
        0,
        6,
        6,
        0,
        0,
        0,
        0,
        0,
        0,
        0,
        0,
        0,
        0,
        0,
        0,
        0,
        0,
        0,
        0,
        0,
        0,
        0,
        0,
        0,
        0,
        0,
        0,
        0,
        0,
        0,
        0,
        0,
        0,
        0,
        0,
        0,
        0,
        0,
        0,
        0,
        0,
        0,
        0,
        0,
        0,
        0,
        0,
        0,
        0,
        0,
        0,
        0,
        0,
        0,
        0,
        0,
        0,
        0,
        0,
        0,
        0,
        0,
        0,
        0,
        0,
        0,
        0,
        0,
        0,
        0,
        0,
        0,
        0,
        0,
        0,
        0,
        0,
        0,
        0,
        0,
        0,
        0,
        0,
        0,
        0,
        0,
        0,
        0,
        6,
        0,
        0,
        0,
        6,
        6,
        6,
        6,
        6,
        0,
        0,
        0,
        0,
        0,
        0,
        0,
        0,
        0,
        0,
        0,
        0,
        0,
        0,
        0,
        0,
        0,
        0,
        0,
        0,
        0,
        0,
        0,
        0,
        0,
        0,
        0,
        0,
        0,
        0,
        0,
        0,
        0,
        0,
        0,
        0,
        0,
        0,
        0,
        0,
        0,
        0,
        0,
        0,
        0,
        0,
        0,
        0,
        6,
        6,
        6,
        6,
        6,
        6,
        6,
        6,
        0,
        0,
        0,
        6,
        6,
        6,
        6,
        0,
        0,
        0,
        0,
        0,
        0,
        0,
        0,
        0,
        0,
        0,
        0,
        0,
        0,
        0,
        0,
        0,
        0,
        0,
        0,
        0,
        0,
        0,
        6,
        6,
        6,
        0,
        0,
        6,
        6,
        6,
        6,
        6,
        6,
        6,
        6,
        6,
        6,
        6,
        6,
        6,
        6,
        6,
        6,
        6,
        6,
        0,
        0,
        0,
        6,
        6,
        6,
        6,
        6,
        6,
        6,
        6,
        0,
        0,
        0,
        6,
        6,
        6,
        0,
        0,
        0,
        0,
        0,
        0,
        0,
        0,
        0,
        0,
        0,
        0,
        0,
        0,
        0,
        0,
        0,
        0,
        0,
        0,
        0,
        0,
        0,
        0,
        6,
        6,
        6,
        0,
        0,
        6,
        6,
        6,
        6,
        6,
        6,
        6,
        6,
        6,
        6,
        6,
        6,
        6,
        6,
        6,
        6,
        6,
        6,
        0,
        0,
        0,
        0,
        0,
        0,
        0,
        0,
        0,
        0,
        0,
        0,
        0,
        0,
        6,
        6,
        0,
        0,
        0,
        0,
        0,
        0,
        0,
        6,
        0,
        0,
        0,
        0,
        0,
        0,
        0,
        0,
        0,
        0,
        0,
        6,
        6,
        0,
        0,
        0,
        0,
        6,
        6,
        6,
        0,
        0,
        6,
        6,
        6,
        6,
        6,
        6,
        6,
        6,
        6,
        6,
        6,
        0,
        0,
        0,
        0,
        0,
        0,
        0,
        0,
        0,
        0,
        0,
        0,
        0,
        0,
        0,
        0,
        0,
        0,
        0,
        0,
        0,
        0,
        0,
        0,
        0,
        0,
        0,
        0,
        0,
        0,
        6,
        0,
        0,
        0,
        0,
        0,
        0,
        0,
        0,
        0,
        0,
        0,
        0,
        6,
        0,
        0,
        0,
        0,
        0,
        0,
        0,
        6,
        0,
        6,
        6,
        6,
        6,
        6,
        6,
        6,
        6,
        0,
        0,
        0,
        0,
        0,
        0,
        0,
        0,
        0,
        0,
        0,
        0,
        0,
        0,
        0,
        0,
        0,
        6,
        6,
        6,
        6,
        6,
        6,
        0,
        0,
        0,
        0,
        0,
        6,
        6,
        0,
        0,
        0,
        6,
        6,
        6,
        6,
        6,
        6,
        6,
        6,
        6,
        6,
        6,
        6,
        6,
        6,
        0,
        0,
        0,
        0,
        6,
        6,
        0,
        6,
        0,
        6,
        6,
        6,
        6,
        6,
        6,
        6,
        6,
        0,
        0,
        0,
        0,
        6,
        6,
        6,
        6,
        6,
        0,
        0,
        0,
        0,
        0,
        0,
        6,
        6,
        6,
        6,
        6,
        6,
        6,
        6,
        0,
        0,
        6,
        6,
        6,
        6,
        6,
        0,
        0,
        0,
        6,
        6,
        6,
        6,
        6,
        6,
        6,
        6,
        6,
        6,
        6,
        6,
        6,
        6,
        0,
        0,
        0,
        0,
        6,
        6,
        0,
        6,
        0,
        6,
        6,
        6,
        6,
        6,
        6,
        6,
        6,
        0,
        0,
        0,
        6,
        6,
        6,
        6,
        6,
        6,
        0,
        0,
        0,
        0,
        0,
        0,
        6,
        0,
        0,
        0,
        0,
        0,
        0,
        0,
        0,
        6,
        6,
        6,
        6,
        6,
        0,
        0,
        0,
        0,
        6,
        0,
        0,
        0,
        0,
        0,
        0,
        0,
        0,
        0,
        0,
        0,
        6,
        6,
        0,
        0,
        0,
        0,
        6,
        6,
        0,
        6,
        0,
        6,
        6,
        6,
        6,
        6,
        6,
        6,
        6,
        0,
        0,
        0,
        0,
        0,
        0,
        0,
        0,
        0,
        0,
        0,
        0,
        0,
        0,
        0,
        0,
        0,
        0,
        0,
        0,
        0,
        0,
        0,
        0,
        0,
        0,
        0,
        0,
        0,
        0,
        0,
        0,
        0,
        0,
        0,
        0,
        0,
        0,
        0,
        0,
        0,
        0,
        0,
        0,
        0,
        0,
        0,
        0,
        0,
        0,
        0,
        6,
        6,
        6,
        0,
        0,
        6,
        6,
        6,
        6,
        6,
        6,
        6,
        6,
        0,
        0,
        0,
        0,
        0,
        0,
        0,
        0,
        0,
        0,
        0,
        0,
        0,
        0,
        0,
        0,
        0,
        0,
        0,
        0,
        0,
        0,
        0,
        0,
        0,
        0,
        0,
        0,
        0,
        0,
        0,
        0,
        0,
        0,
        0,
        6,
        6,
        0,
        0,
        0,
        0,
        0,
        0,
        6,
        6,
        0,
        0,
        0,
        0,
        0,
        0,
        0,
        0,
        0,
        0,
        0,
        6,
        6,
        6,
        6,
        6,
        6,
        6,
        6,
        0,
        0,
        0,
        0,
        0,
        0,
        0,
        0,
        0,
        0,
        0,
        0,
        0,
        0,
        0,
        0,
        0,
        0,
        0,
        0,
        0,
        0,
        0,
        0,
        6,
        6,
        6,
        6,
        6,
        6,
        0,
        0,
        0,
        0,
        0,
        6,
        6,
        0,
        0,
        0,
        0,
        0,
        0,
        0,
        0,
        0,
        0,
        0,
        0,
        0,
        0,
        6,
        6,
        6,
        6,
        6,
        6,
        6,
        6,
        6,
        6,
        6,
        6,
        6,
        0,
        6,
        6,
        0,
        0,
        0,
        0,
        0,
        0,
        0,
        0,
        0,
        0,
        0,
        0,
        0,
        0,
        0,
        0,
        0,
        0,
        6,
        0,
        0,
        6,
        6,
        6,
        6,
        6,
        6,
        0,
        0,
        0,
        0,
        0,
        0,
        0,
        0,
        0,
        0,
        0,
        0,
        0,
        0,
        0,
        0,
        0,
        0,
        0,
        0,
        0,
        6,
        6,
        6,
        6,
        6,
        6,
        6,
        6,
        6,
        6,
        6,
        6,
        6,
        0,
        0,
        6,
        6,
        6,
        6,
        6,
        6,
        6,
        6,
        0,
        0,
        0,
        0,
        6,
        6,
        6,
        6,
        6,
        6,
        6,
        6,
        6,
        0,
        6,
        6,
        6,
        6,
        6,
        6,
        0,
        0,
        0,
        6,
        6,
        6,
        6,
        6,
        6,
        0,
        0,
        0,
        6,
        6,
        6,
        6,
        6,
        6,
        0,
        0,
        0,
        6,
        6,
        6,
        6,
        6,
        0,
        6,
        6,
        6,
        6,
        6,
        6,
        6,
        0,
        0,
        6,
        6,
        6,
        6,
        6,
        6,
        6,
        6,
        0,
        0,
        0,
        0,
        0,
        0,
        0,
        0,
        0,
        0,
        0,
        6,
        6,
        0,
        0,
        0,
        0,
        0,
        0,
        0,
        0,
        0,
        0,
        6,
        6,
        6,
        6,
        6,
        0,
        0,
        0,
        0,
        6,
        6,
        6,
        6,
        6,
        6,
        0,
        0,
        0,
        6,
        6,
        6,
        6,
        6,
        0,
        6,
        6,
        6,
        6,
        6,
        6,
        6,
        0,
        0,
        6,
        0,
        0,
        0,
        0,
        0,
        0,
        0,
        0,
        0,
        0,
        0,
        0,
        0,
        0,
        0,
        0,
        0,
        0,
        0,
        0,
        0,
        0,
        0,
        0,
        0,
        0,
        0,
        0,
        0,
        0,
        6,
        0,
        0,
        0,
        0,
        0,
        0,
        0,
        0,
        6,
        6,
        6,
        6,
        6,
        6,
        0,
        0,
        0,
        6,
        6,
        6,
        6,
        6,
        0,
        6,
        6,
        6,
        6,
        6,
        6,
        6,
        0,
        0,
        6,
        0,
        0,
        0,
        0,
        0,
        0,
        0,
        0,
        0,
        0,
        0,
        0,
        0,
        0,
        0,
        0,
        0,
        0,
        0,
        0,
        0,
        0,
        0,
        0,
        0,
        0,
        0,
        0,
        0,
        0,
        6,
        0,
        0,
        0,
        0,
        0,
        0,
        0,
        0,
        6,
        6,
        6,
        6,
        6,
        6,
        0,
        0,
        0,
        0,
        0,
        0,
        0,
        0,
        0,
        6,
        6,
        6,
        6,
        6,
        6,
        6,
        0,
        0,
        6,
        0,
        0,
        0,
        0,
        0,
        0,
        0,
        0,
        0,
        0,
        0,
        0,
        0,
        0,
        0,
        0,
        0,
        0,
        0,
        0,
        0,
        0,
        0,
        0,
        0,
        0,
        6,
        0,
        0,
        0,
        6,
        6,
        6,
        6,
        6,
        6,
        0,
        0,
        0,
        6,
        6,
        6,
        6,
        6,
        6,
        0,
        0,
        0,
        0,
        0,
        0,
        0,
        0,
        0,
        0,
        0,
        0,
        0,
        0,
        0,
        0,
        0,
        0,
        0,
        0,
        0,
        0,
        0,
        0,
        0,
        6,
        6,
        6,
        6,
        6,
        6,
        6,
        6,
        6,
        6,
        6,
        0,
        6,
        6,
        6,
        6,
        6,
        6,
        6,
        6,
        6,
        0,
        0,
        0,
        6,
        6,
        6,
        6,
        6,
        6,
        0,
        0,
        0,
        6,
        6,
        6,
        6,
        6,
        0,
        0,
        0,
        0,
        0,
        0,
        0,
        0,
        0,
        0,
        0,
        0,
        0,
        0,
        0,
        0,
        0,
        0,
        0,
        0,
        0,
        0,
        6,
        6,
        6,
        6,
        0,
        0,
        0,
        0,
        0,
        0,
        0,
        6,
        6,
        6,
        6,
        0,
        6,
        6,
        6,
        6,
        6,
        6,
        6,
        6,
        6,
        0,
        0,
        0,
        0,
        0,
        0,
        0,
        0,
        0,
        0,
        0,
        0,
        0,
        0,
        0,
        0,
        0,
        0,
        0,
        0,
        0,
        0,
        0,
        0,
        0,
        0,
        0,
        0,
        0,
        0,
        0,
        0,
        0,
        0,
        0,
        0,
        0,
        0,
        0,
        0,
        0,
        0,
        0,
        0,
        0,
        0,
        0,
        0,
        0,
        0,
        0,
        0,
        0,
        0,
        0,
        0,
        0,
        0,
        0,
        0,
        0,
        0,
        0,
        0,
        0,
        0,
        0,
        0,
        0,
        0,
        0,
        0,
        0,
        0,
        0,
        0,
        0,
        0,
        0,
        0,
        0,
        0,
        0,
        0,
        0,
        0,
        0,
        0,
        0,
        0,
        0,
        0,
        0,
        0,
        0,
        0,
        0,
        0,
        0,
        0,
        0,
        0,
        0,
        0,
        0,
        0,
        0,
        0,
        0,
        0,
        0,
        0,
        0,
        0,
        0,
        0,
        0,
        0,
        0,
        0,
        0,
        0,
        0,
        0,
        0,
        0,
        0,
        0,
        0,
        0,
        0,
        0,
        0,
        0,
        0,
        0,
        0,
        0,
        0,
        0,
        0,
        0,
        0,
        0,
        0,
        0,
        0,
        0,
        0,
        0,
        0,
        0,
        0,
        0,
        0,
        0,
        0,
        0,
        0,
        0,
        0,
        0,
        0,
        0,
        0,
        0,
        0,
        0,
        0,
        0,
        0,
        0,
        0,
        0,
        0,
        0,
        0,
        0,
        0,
        0,
        0,
        0,
        0,
        0,
        0,
        0,
        0,
        0,
        0,
        0,
        0,
        0,
        0,
        0,
        0,
        0,
        0,
        0,
        0,
        0,
        0,
        0,
        0,
        0,
        0,
        0,
        0,
        0,
        0,
        0,
        0,
        0,
        0,
        0,
        0,
        0,
        0,
        0,
        0,
        0,
        0,
        0,
        0,
        0,
        0,
        0,
        0,
        0,
        0
      ]
    },
    {
      "id": 3,
      "name": "source_landmarks",
      "type": "objectgroup",
      "draworder": "topdown",
      "visible": true,
      "opacity": 1,
      "x": 0,
      "y": 0,
      "objects": [
        {
          "id": 1,
          "name": "北航图书馆",
          "type": "source_landmark",
          "point": true,
          "x": 1156.498,
          "y": 159.39,
          "width": 0,
          "height": 0,
          "visible": true,
          "properties": [
            {
              "name": "sourceFeatureId",
              "type": "string",
              "value": "xueyuan/way/88777864"
            },
            {
              "name": "sourceCategory",
              "type": "string",
              "value": "building"
            },
            {
              "name": "entranceVerified",
              "type": "bool",
              "value": false
            }
          ]
        },
        {
          "id": 2,
          "name": "8公寓",
          "type": "source_landmark",
          "point": true,
          "x": 701.438,
          "y": 557.513,
          "width": 0,
          "height": 0,
          "visible": true,
          "properties": [
            {
              "name": "sourceFeatureId",
              "type": "string",
              "value": "xueyuan/way/190430062"
            },
            {
              "name": "sourceCategory",
              "type": "string",
              "value": "building"
            },
            {
              "name": "entranceVerified",
              "type": "bool",
              "value": false
            }
          ]
        },
        {
          "id": 3,
          "name": "7公寓",
          "type": "source_landmark",
          "point": true,
          "x": 453.539,
          "y": 690.985,
          "width": 0,
          "height": 0,
          "visible": true,
          "properties": [
            {
              "name": "sourceFeatureId",
              "type": "string",
              "value": "xueyuan/way/190427801"
            },
            {
              "name": "sourceCategory",
              "type": "string",
              "value": "building"
            },
            {
              "name": "entranceVerified",
              "type": "bool",
              "value": false
            }
          ]
        },
        {
          "id": 4,
          "name": "东区食堂",
          "type": "source_landmark",
          "point": true,
          "x": 765.448,
          "y": 1017.93,
          "width": 0,
          "height": 0,
          "visible": true,
          "properties": [
            {
              "name": "sourceFeatureId",
              "type": "string",
              "value": "xueyuan/way/190427995"
            },
            {
              "name": "sourceCategory",
              "type": "string",
              "value": "building"
            },
            {
              "name": "entranceVerified",
              "type": "bool",
              "value": false
            }
          ]
        },
        {
          "id": 5,
          "name": "北京航空航天博物馆",
          "type": "source_landmark",
          "point": true,
          "x": 1825.08,
          "y": 913.602,
          "width": 0,
          "height": 0,
          "visible": true,
          "properties": [
            {
              "name": "sourceFeatureId",
              "type": "string",
              "value": "xueyuan/way/190444425"
            },
            {
              "name": "sourceCategory",
              "type": "string",
              "value": "building"
            },
            {
              "name": "entranceVerified",
              "type": "bool",
              "value": false
            }
          ]
        },
        {
          "id": 6,
          "name": "第九馆 / 逸夫楼",
          "type": "source_landmark",
          "point": true,
          "x": 1606.831,
          "y": 1038.926,
          "width": 0,
          "height": 0,
          "visible": true,
          "properties": [
            {
              "name": "sourceFeatureId",
              "type": "string",
              "value": "xueyuan/way/190444424"
            },
            {
              "name": "sourceCategory",
              "type": "string",
              "value": "building"
            },
            {
              "name": "entranceVerified",
              "type": "bool",
              "value": false
            }
          ]
        }
      ]
    }
  ]
}
