{
  "type": "map",
  "version": "1.10",
  "tiledversion": "1.11.2",
  "orientation": "orthogonal",
  "renderorder": "right-down",
  "infinite": false,
  "width": 16,
  "height": 12,
  "tilewidth": 32,
  "tileheight": 32,
  "nextlayerid": 5,
  "nextobjectid": 10,
  "properties": [
    {
      "name": "sceneId",
      "type": "string",
      "value": "classroom"
    },
    {
      "name": "artScale",
      "type": "string",
      "value": "32 px/tile"
    },
    {
      "name": "interactionRadius",
      "type": "int",
      "value": 40
    }
  ],
  "tilesets": [
    {
      "firstgid": 1,
      "name": "graybox",
      "tilewidth": 32,
      "tileheight": 32,
      "columns": 5,
      "tilecount": 20,
      "image": "graybox-tiles.png",
      "imagewidth": 160,
      "imageheight": 128
    }
  ],
  "layers": [
    {
      "id": 1,
      "name": "ground",
      "type": "tilelayer",
      "width": 16,
      "height": 12,
      "opacity": 1,
      "visible": true,
      "x": 0,
      "y": 0,
      "data": [
        11,
        11,
        11,
        11,
        11,
        11,
        11,
        11,
        11,
        11,
        11,
        11,
        11,
        11,
        11,
        11,
        11,
        11,
        11,
        11,
        11,
        11,
        11,
        11,
        11,
        11,
        11,
        11,
        11,
        11,
        11,
        11,
        11,
        11,
        11,
        11,
        11,
        11,
        11,
        11,
        11,
        11,
        11,
        11,
        11,
        11,
        11,
        11,
        11,
        11,
        11,
        11,
        11,
        11,
        11,
        11,
        11,
        11,
        11,
        11,
        11,
        11,
        11,
        11,
        11,
        11,
        11,
        11,
        11,
        11,
        11,
        11,
        11,
        11,
        11,
        11,
        11,
        11,
        11,
        11,
        11,
        11,
        11,
        11,
        11,
        11,
        11,
        11,
        11,
        11,
        11,
        11,
        11,
        11,
        11,
        11,
        11,
        11,
        11,
        11,
        11,
        11,
        11,
        11,
        11,
        11,
        11,
        11,
        11,
        11,
        11,
        11,
        11,
        11,
        11,
        11,
        11,
        11,
        11,
        11,
        11,
        11,
        11,
        11,
        11,
        11,
        11,
        11,
        11,
        11,
        11,
        11,
        11,
        11,
        11,
        11,
        11,
        11,
        11,
        11,
        11,
        11,
        11,
        11,
        11,
        11,
        11,
        11,
        11,
        11,
        11,
        11,
        11,
        11,
        11,
        11,
        11,
        11,
        11,
        11,
        11,
        11,
        11,
        11,
        11,
        11,
        11,
        11,
        11,
        11,
        11,
        11,
        11,
        11,
        11,
        11,
        11,
        11,
        11,
        11,
        11,
        11,
        11,
        11,
        11,
        11,
        11,
        11,
        11,
        11,
        11,
        11
      ]
    },
    {
      "id": 2,
      "name": "scenery",
      "type": "tilelayer",
      "width": 16,
      "height": 12,
      "opacity": 1,
      "visible": true,
      "x": 0,
      "y": 0,
      "data": [
        9,
        9,
        9,
        9,
        9,
        9,
        9,
        9,
        9,
        9,
        9,
        9,
        9,
        9,
        9,
        9,
        9,
        0,
        0,
        0,
        0,
        0,
        15,
        15,
        15,
        15,
        0,
        0,
        0,
        0,
        0,
        9,
        9,
        0,
        0,
        0,
        0,
        0,
        0,
        0,
        0,
        0,
        0,
        0,
        0,
        0,
        0,
        9,
        9,
        0,
        0,
        0,
        0,
        0,
        0,
        0,
        0,
        0,
        0,
        0,
        0,
        0,
        0,
        9,
        9,
        0,
        0,
        13,
        13,
        0,
        0,
        13,
        13,
        0,
        0,
        13,
        13,
        0,
        0,
        9,
        9,
        0,
        0,
        0,
        0,
        0,
        0,
        0,
        0,
        0,
        0,
        0,
        0,
        0,
        0,
        9,
        9,
        0,
        0,
        0,
        0,
        0,
        0,
        0,
        0,
        0,
        0,
        0,
        0,
        0,
        0,
        9,
        9,
        0,
        0,
        13,
        13,
        0,
        0,
        13,
        13,
        0,
        0,
        13,
        13,
        0,
        0,
        9,
        9,
        0,
        0,
        0,
        0,
        0,
        0,
        0,
        0,
        0,
        0,
        0,
        0,
        0,
        0,
        9,
        9,
        0,
        0,
        0,
        0,
        0,
        0,
        0,
        0,
        0,
        0,
        0,
        0,
        0,
        0,
        9,
        9,
        0,
        0,
        0,
        0,
        0,
        0,
        0,
        0,
        0,
        0,
        0,
        0,
        0,
        0,
        9,
        9,
        9,
        9,
        9,
        9,
        9,
        9,
        17,
        17,
        9,
        9,
        9,
        9,
        9,
        9,
        9
      ]
    },
    {
      "id": 3,
      "name": "collision",
      "type": "tilelayer",
      "width": 16,
      "height": 12,
      "opacity": 1,
      "visible": false,
      "x": 0,
      "y": 0,
      "data": [
        19,
        19,
        19,
        19,
        19,
        19,
        19,
        19,
        19,
        19,
        19,
        19,
        19,
        19,
        19,
        19,
        19,
        0,
        0,
        0,
        0,
        0,
        19,
        19,
        19,
        19,
        0,
        0,
        0,
        0,
        0,
        19,
        19,
        0,
        0,
        0,
        0,
        0,
        0,
        0,
        0,
        0,
        0,
        0,
        0,
        0,
        0,
        19,
        19,
        0,
        0,
        0,
        0,
        0,
        0,
        0,
        0,
        0,
        0,
        0,
        0,
        0,
        0,
        19,
        19,
        0,
        0,
        19,
        19,
        0,
        0,
        19,
        19,
        0,
        0,
        19,
        19,
        0,
        0,
        19,
        19,
        0,
        0,
        0,
        0,
        0,
        0,
        0,
        0,
        0,
        0,
        0,
        0,
        0,
        0,
        19,
        19,
        0,
        0,
        0,
        0,
        0,
        0,
        0,
        0,
        0,
        0,
        0,
        0,
        0,
        0,
        19,
        19,
        0,
        0,
        19,
        19,
        0,
        0,
        19,
        19,
        0,
        0,
        19,
        19,
        0,
        0,
        19,
        19,
        0,
        0,
        0,
        0,
        0,
        0,
        0,
        0,
        0,
        0,
        0,
        0,
        0,
        0,
        19,
        19,
        0,
        0,
        0,
        0,
        0,
        0,
        0,
        0,
        0,
        0,
        0,
        0,
        0,
        0,
        19,
        19,
        0,
        0,
        0,
        0,
        0,
        0,
        0,
        0,
        0,
        0,
        0,
        0,
        0,
        0,
        19,
        19,
        19,
        19,
        19,
        19,
        19,
        19,
        0,
        0,
        19,
        19,
        19,
        19,
        19,
        19,
        19
      ]
    },
    {
      "id": 4,
      "name": "gameplay",
      "type": "objectgroup",
      "draworder": "topdown",
      "opacity": 1,
      "visible": true,
      "x": 0,
      "y": 0,
      "objects": [
        {
          "id": 1,
          "name": "player_spawn",
          "type": "spawn",
          "point": true,
          "x": 240.0,
          "y": 304.0,
          "width": 0,
          "height": 0,
          "visible": true
        },
        {
          "id": 2,
          "name": "board",
          "type": "interactable",
          "x": 192,
          "y": 32,
          "width": 128,
          "height": 32,
          "visible": true,
          "properties": [
            {
              "name": "stableId",
              "type": "string",
              "value": "board"
            },
            {
              "name": "label",
              "type": "string",
              "value": "讲台 / 黑板"
            },
            {
              "name": "action",
              "type": "string",
              "value": "查看课程板"
            },
            {
              "name": "interactionRadius",
              "type": "int",
              "value": 40
            },
            {
              "name": "anchorX",
              "type": "string",
              "value": 240.0
            },
            {
              "name": "anchorY",
              "type": "string",
              "value": 48.0
            }
          ]
        },
        {
          "id": 3,
          "name": "desk_a",
          "type": "landmark",
          "x": 96,
          "y": 128,
          "width": 64,
          "height": 32,
          "visible": true,
          "properties": [
            {
              "name": "stableId",
              "type": "string",
              "value": "desk_a"
            },
            {
              "name": "label",
              "type": "string",
              "value": "课桌"
            }
          ]
        },
        {
          "id": 4,
          "name": "desk_b",
          "type": "landmark",
          "x": 224,
          "y": 128,
          "width": 64,
          "height": 32,
          "visible": true,
          "properties": [
            {
              "name": "stableId",
              "type": "string",
              "value": "desk_b"
            },
            {
              "name": "label",
              "type": "string",
              "value": "课桌"
            }
          ]
        },
        {
          "id": 5,
          "name": "desk_c",
          "type": "landmark",
          "x": 352,
          "y": 128,
          "width": 64,
          "height": 32,
          "visible": true,
          "properties": [
            {
              "name": "stableId",
              "type": "string",
              "value": "desk_c"
            },
            {
              "name": "label",
              "type": "string",
              "value": "课桌"
            }
          ]
        },
        {
          "id": 6,
          "name": "desk_d",
          "type": "landmark",
          "x": 96,
          "y": 224,
          "width": 64,
          "height": 32,
          "visible": true,
          "properties": [
            {
              "name": "stableId",
              "type": "string",
              "value": "desk_d"
            },
            {
              "name": "label",
              "type": "string",
              "value": "课桌"
            }
          ]
        },
        {
          "id": 7,
          "name": "desk_e",
          "type": "landmark",
          "x": 224,
          "y": 224,
          "width": 64,
          "height": 32,
          "visible": true,
          "properties": [
            {
              "name": "stableId",
              "type": "string",
              "value": "desk_e"
            },
            {
              "name": "label",
              "type": "string",
              "value": "课桌"
            }
          ]
        },
        {
          "id": 8,
          "name": "desk_f",
          "type": "landmark",
          "x": 352,
          "y": 224,
          "width": 64,
          "height": 32,
          "visible": true,
          "properties": [
            {
              "name": "stableId",
              "type": "string",
              "value": "desk_f"
            },
            {
              "name": "label",
              "type": "string",
              "value": "课桌"
            }
          ]
        },
        {
          "id": 9,
          "name": "exit",
          "type": "entrance",
          "x": 224,
          "y": 352,
          "width": 64,
          "height": 32,
          "visible": true,
          "properties": [
            {
              "name": "stableId",
              "type": "string",
              "value": "exit"
            },
            {
              "name": "label",
              "type": "string",
              "value": "返回校园"
            },
            {
              "name": "action",
              "type": "string",
              "value": "返回校园"
            },
            {
              "name": "targetScene",
              "type": "string",
              "value": "campus"
            },
            {
              "name": "interactionRadius",
              "type": "int",
              "value": 40
            },
            {
              "name": "targetTileX",
              "type": "int",
              "value": 23
            },
            {
              "name": "targetTileY",
              "type": "int",
              "value": 10
            },
            {
              "name": "anchorX",
              "type": "string",
              "value": 240.0
            },
            {
              "name": "anchorY",
              "type": "string",
              "value": 368.0
            }
          ]
        }
      ]
    }
  ]
}
