{
  "type": "map",
  "version": "1.10",
  "tiledversion": "1.11.2",
  "orientation": "orthogonal",
  "renderorder": "right-down",
  "infinite": false,
  "width": 16,
  "height": 12,
  "tilewidth": 32,
  "tileheight": 32,
  "nextlayerid": 5,
  "nextobjectid": 8,
  "properties": [
    {
      "name": "sceneId",
      "type": "string",
      "value": "club_room"
    },
    {
      "name": "artScale",
      "type": "string",
      "value": "32 px/tile"
    },
    {
      "name": "interactionRadius",
      "type": "int",
      "value": 40
    }
  ],
  "tilesets": [
    {
      "firstgid": 1,
      "name": "graybox",
      "tilewidth": 32,
      "tileheight": 32,
      "columns": 5,
      "tilecount": 20,
      "image": "graybox-tiles.png",
      "imagewidth": 160,
      "imageheight": 128
    }
  ],
  "layers": [
    {
      "id": 1,
      "name": "ground",
      "type": "tilelayer",
      "width": 16,
      "height": 12,
      "opacity": 1,
      "visible": true,
      "x": 0,
      "y": 0,
      "data": [
        12,
        12,
        12,
        12,
        12,
        12,
        12,
        12,
        12,
        12,
        12,
        12,
        12,
        12,
        12,
        12,
        12,
        12,
        12,
        12,
        12,
        12,
        12,
        12,
        12,
        12,
        12,
        12,
        12,
        12,
        12,
        12,
        12,
        12,
        12,
        12,
        12,
        12,
        12,
        12,
        12,
        12,
        12,
        12,
        12,
        12,
        12,
        12,
        12,
        12,
        12,
        12,
        12,
        12,
        12,
        12,
        12,
        12,
        12,
        12,
        12,
        12,
        12,
        12,
        12,
        12,
        12,
        12,
        12,
        12,
        12,
        12,
        12,
        12,
        12,
        12,
        12,
        12,
        12,
        12,
        12,
        12,
        12,
        12,
        12,
        12,
        12,
        12,
        12,
        12,
        12,
        12,
        12,
        12,
        12,
        12,
        12,
        12,
        12,
        12,
        12,
        12,
        12,
        12,
        12,
        12,
        12,
        12,
        12,
        12,
        12,
        12,
        12,
        12,
        12,
        12,
        12,
        12,
        12,
        12,
        12,
        12,
        12,
        12,
        12,
        12,
        12,
        12,
        12,
        12,
        12,
        12,
        12,
        12,
        12,
        12,
        12,
        12,
        12,
        12,
        12,
        12,
        12,
        12,
        12,
        12,
        12,
        12,
        12,
        12,
        12,
        12,
        12,
        12,
        12,
        12,
        12,
        12,
        12,
        12,
        12,
        12,
        12,
        12,
        12,
        12,
        12,
        12,
        12,
        12,
        12,
        12,
        12,
        12,
        12,
        12,
        12,
        12,
        12,
        12,
        12,
        12,
        12,
        12,
        12,
        12,
        12,
        12,
        12,
        12,
        12,
        12
      ]
    },
    {
      "id": 2,
      "name": "scenery",
      "type": "tilelayer",
      "width": 16,
      "height": 12,
      "opacity": 1,
      "visible": true,
      "x": 0,
      "y": 0,
      "data": [
        9,
        9,
        9,
        9,
        9,
        9,
        9,
        9,
        9,
        9,
        9,
        9,
        9,
        9,
        9,
        9,
        9,
        0,
        0,
        0,
        0,
        0,
        15,
        15,
        15,
        15,
        0,
        0,
        0,
        0,
        0,
        9,
        9,
        0,
        13,
        13,
        0,
        0,
        0,
        0,
        0,
        0,
        0,
        0,
        13,
        13,
        0,
        9,
        9,
        0,
        13,
        13,
        0,
        0,
        0,
        0,
        0,
        0,
        0,
        0,
        13,
        13,
        0,
        9,
        9,
        0,
        0,
        0,
        0,
        0,
        15,
        15,
        15,
        15,
        0,
        0,
        0,
        0,
        0,
        9,
        9,
        0,
        0,
        0,
        0,
        0,
        15,
        15,
        15,
        15,
        0,
        0,
        0,
        0,
        0,
        9,
        9,
        0,
        0,
        0,
        0,
        0,
        0,
        0,
        0,
        0,
        0,
        0,
        0,
        0,
        0,
        9,
        9,
        0,
        0,
        0,
        0,
        0,
        0,
        0,
        0,
        0,
        0,
        0,
        0,
        0,
        0,
        9,
        9,
        0,
        14,
        14,
        14,
        0,
        0,
        0,
        0,
        0,
        0,
        0,
        0,
        0,
        0,
        9,
        9,
        0,
        0,
        0,
        0,
        0,
        0,
        0,
        0,
        0,
        0,
        0,
        0,
        0,
        0,
        9,
        9,
        0,
        0,
        0,
        0,
        0,
        0,
        0,
        0,
        0,
        0,
        0,
        0,
        0,
        0,
        9,
        9,
        9,
        9,
        9,
        9,
        9,
        9,
        17,
        17,
        9,
        9,
        9,
        9,
        9,
        9,
        9
      ]
    },
    {
      "id": 3,
      "name": "collision",
      "type": "tilelayer",
      "width": 16,
      "height": 12,
      "opacity": 1,
      "visible": false,
      "x": 0,
      "y": 0,
      "data": [
        19,
        19,
        19,
        19,
        19,
        19,
        19,
        19,
        19,
        19,
        19,
        19,
        19,
        19,
        19,
        19,
        19,
        0,
        0,
        0,
        0,
        0,
        19,
        19,
        19,
        19,
        0,
        0,
        0,
        0,
        0,
        19,
        19,
        0,
        19,
        19,
        0,
        0,
        0,
        0,
        0,
        0,
        0,
        0,
        19,
        19,
        0,
        19,
        19,
        0,
        19,
        19,
        0,
        0,
        0,
        0,
        0,
        0,
        0,
        0,
        19,
        19,
        0,
        19,
        19,
        0,
        0,
        0,
        0,
        0,
        19,
        19,
        19,
        19,
        0,
        0,
        0,
        0,
        0,
        19,
        19,
        0,
        0,
        0,
        0,
        0,
        19,
        19,
        19,
        19,
        0,
        0,
        0,
        0,
        0,
        19,
        19,
        0,
        0,
        0,
        0,
        0,
        0,
        0,
        0,
        0,
        0,
        0,
        0,
        0,
        0,
        19,
        19,
        0,
        0,
        0,
        0,
        0,
        0,
        0,
        0,
        0,
        0,
        0,
        0,
        0,
        0,
        19,
        19,
        0,
        19,
        19,
        19,
        0,
        0,
        0,
        0,
        0,
        0,
        0,
        0,
        0,
        0,
        19,
        19,
        0,
        0,
        0,
        0,
        0,
        0,
        0,
        0,
        0,
        0,
        0,
        0,
        0,
        0,
        19,
        19,
        0,
        0,
        0,
        0,
        0,
        0,
        0,
        0,
        0,
        0,
        0,
        0,
        0,
        0,
        19,
        19,
        19,
        19,
        19,
        19,
        19,
        19,
        0,
        0,
        19,
        19,
        19,
        19,
        19,
        19,
        19
      ]
    },
    {
      "id": 4,
      "name": "gameplay",
      "type": "objectgroup",
      "draworder": "topdown",
      "opacity": 1,
      "visible": true,
      "x": 0,
      "y": 0,
      "objects": [
        {
          "id": 1,
          "name": "player_spawn",
          "type": "spawn",
          "point": true,
          "x": 240.0,
          "y": 304.0,
          "width": 0,
          "height": 0,
          "visible": true
        },
        {
          "id": 2,
          "name": "noticeboard",
          "type": "interactable",
          "x": 192,
          "y": 32,
          "width": 128,
          "height": 32,
          "visible": true,
          "properties": [
            {
              "name": "stableId",
              "type": "string",
              "value": "noticeboard"
            },
            {
              "name": "label",
              "type": "string",
              "value": "公告板"
            },
            {
              "name": "action",
              "type": "string",
              "value": "查看公告板"
            },
            {
              "name": "interactionRadius",
              "type": "int",
              "value": 40
            },
            {
              "name": "anchorX",
              "type": "string",
              "value": 240.0
            },
            {
              "name": "anchorY",
              "type": "string",
              "value": 48.0
            }
          ]
        },
        {
          "id": 3,
          "name": "supply",
          "type": "interactable",
          "x": 64,
          "y": 64,
          "width": 64,
          "height": 64,
          "visible": true,
          "properties": [
            {
              "name": "stableId",
              "type": "string",
              "value": "supply"
            },
            {
              "name": "label",
              "type": "string",
              "value": "材料架"
            },
            {
              "name": "action",
              "type": "string",
              "value": "查看材料架"
            },
            {
              "name": "interactionRadius",
              "type": "int",
              "value": 40
            },
            {
              "name": "anchorX",
              "type": "string",
              "value": 112.0
            },
            {
              "name": "anchorY",
              "type": "string",
              "value": 112.0
            }
          ]
        },
        {
          "id": 4,
          "name": "display",
          "type": "interactable",
          "x": 384,
          "y": 64,
          "width": 64,
          "height": 64,
          "visible": true,
          "properties": [
            {
              "name": "stableId",
              "type": "string",
              "value": "display"
            },
            {
              "name": "label",
              "type": "string",
              "value": "展示架"
            },
            {
              "name": "action",
              "type": "string",
              "value": "查看展示架"
            },
            {
              "name": "interactionRadius",
              "type": "int",
              "value": 40
            },
            {
              "name": "anchorX",
              "type": "string",
              "value": 400.0
            },
            {
              "name": "anchorY",
              "type": "string",
              "value": 112.0
            }
          ]
        },
        {
          "id": 5,
          "name": "workbench",
          "type": "interactable",
          "x": 192,
          "y": 128,
          "width": 128,
          "height": 64,
          "visible": true,
          "properties": [
            {
              "name": "stableId",
              "type": "string",
              "value": "workbench"
            },
            {
              "name": "label",
              "type": "string",
              "value": "工作台"
            },
            {
              "name": "action",
              "type": "string",
              "value": "使用工作台"
            },
            {
              "name": "interactionRadius",
              "type": "int",
              "value": 40
            },
            {
              "name": "anchorX",
              "type": "string",
              "value": 240.0
            },
            {
              "name": "anchorY",
              "type": "string",
              "value": 176.0
            }
          ]
        },
        {
          "id": 6,
          "name": "sofa",
          "type": "landmark",
          "x": 64,
          "y": 256,
          "width": 96,
          "height": 32,
          "visible": true,
          "properties": [
            {
              "name": "stableId",
              "type": "string",
              "value": "sofa"
            },
            {
              "name": "label",
              "type": "string",
              "value": "休息角"
            }
          ]
        },
        {
          "id": 7,
          "name": "exit",
          "type": "entrance",
          "x": 224,
          "y": 352,
          "width": 64,
          "height": 32,
          "visible": true,
          "properties": [
            {
              "name": "stableId",
              "type": "string",
              "value": "exit"
            },
            {
              "name": "label",
              "type": "string",
              "value": "返回校园"
            },
            {
              "name": "action",
              "type": "string",
              "value": "返回校园"
            },
            {
              "name": "targetScene",
              "type": "string",
              "value": "campus"
            },
            {
              "name": "interactionRadius",
              "type": "int",
              "value": 40
            },
            {
              "name": "targetTileX",
              "type": "int",
              "value": 38
            },
            {
              "name": "targetTileY",
              "type": "int",
              "value": 25
            },
            {
              "name": "anchorX",
              "type": "string",
              "value": 240.0
            },
            {
              "name": "anchorY",
              "type": "string",
              "value": 368.0
            }
          ]
        }
      ]
    }
  ]
}
