{
  "type": "map",
  "version": "1.10",
  "tiledversion": "1.11.2",
  "orientation": "orthogonal",
  "renderorder": "right-down",
  "infinite": false,
  "width": 12,
  "height": 10,
  "tilewidth": 32,
  "tileheight": 32,
  "nextlayerid": 5,
  "nextobjectid": 7,
  "properties": [
    {
      "name": "sceneId",
      "type": "string",
      "value": "dorm_room"
    },
    {
      "name": "artScale",
      "type": "string",
      "value": "32 px/tile"
    },
    {
      "name": "interactionRadius",
      "type": "int",
      "value": 40
    }
  ],
  "tilesets": [
    {
      "firstgid": 1,
      "name": "graybox",
      "tilewidth": 32,
      "tileheight": 32,
      "columns": 5,
      "tilecount": 20,
      "image": "graybox-tiles.png",
      "imagewidth": 160,
      "imageheight": 128
    }
  ],
  "layers": [
    {
      "id": 1,
      "name": "ground",
      "type": "tilelayer",
      "width": 12,
      "height": 10,
      "opacity": 1,
      "visible": true,
      "x": 0,
      "y": 0,
      "data": [
        10,
        10,
        10,
        10,
        10,
        10,
        10,
        10,
        10,
        10,
        10,
        10,
        10,
        10,
        10,
        10,
        10,
        10,
        10,
        10,
        10,
        10,
        10,
        10,
        10,
        10,
        10,
        10,
        10,
        10,
        10,
        10,
        10,
        10,
        10,
        10,
        10,
        10,
        10,
        10,
        10,
        10,
        10,
        10,
        10,
        10,
        10,
        10,
        10,
        10,
        10,
        10,
        10,
        10,
        10,
        10,
        10,
        10,
        10,
        10,
        10,
        10,
        10,
        10,
        10,
        10,
        10,
        10,
        10,
        10,
        10,
        10,
        10,
        10,
        10,
        10,
        10,
        10,
        10,
        10,
        10,
        10,
        10,
        10,
        10,
        10,
        10,
        10,
        10,
        10,
        10,
        10,
        10,
        10,
        10,
        10,
        10,
        10,
        10,
        10,
        10,
        10,
        10,
        10,
        10,
        10,
        10,
        10,
        10,
        10,
        10,
        10,
        10,
        10,
        10,
        10,
        10,
        10,
        10,
        10
      ]
    },
    {
      "id": 2,
      "name": "scenery",
      "type": "tilelayer",
      "width": 12,
      "height": 10,
      "opacity": 1,
      "visible": true,
      "x": 0,
      "y": 0,
      "data": [
        9,
        9,
        9,
        9,
        9,
        9,
        9,
        9,
        9,
        9,
        9,
        9,
        9,
        0,
        0,
        0,
        0,
        0,
        0,
        0,
        0,
        0,
        0,
        9,
        9,
        0,
        14,
        14,
        0,
        0,
        0,
        13,
        13,
        13,
        0,
        9,
        9,
        0,
        14,
        14,
        0,
        0,
        0,
        13,
        13,
        13,
        0,
        9,
        9,
        0,
        0,
        0,
        0,
        0,
        0,
        0,
        0,
        0,
        0,
        9,
        9,
        0,
        0,
        0,
        0,
        0,
        0,
        0,
        0,
        0,
        0,
        9,
        9,
        0,
        13,
        13,
        0,
        0,
        0,
        0,
        0,
        13,
        0,
        9,
        9,
        0,
        0,
        0,
        0,
        0,
        0,
        0,
        0,
        13,
        0,
        9,
        9,
        0,
        0,
        0,
        0,
        0,
        0,
        0,
        0,
        0,
        0,
        9,
        9,
        9,
        9,
        9,
        9,
        17,
        17,
        9,
        9,
        9,
        9,
        9
      ]
    },
    {
      "id": 3,
      "name": "collision",
      "type": "tilelayer",
      "width": 12,
      "height": 10,
      "opacity": 1,
      "visible": false,
      "x": 0,
      "y": 0,
      "data": [
        19,
        19,
        19,
        19,
        19,
        19,
        19,
        19,
        19,
        19,
        19,
        19,
        19,
        0,
        0,
        0,
        0,
        0,
        0,
        0,
        0,
        0,
        0,
        19,
        19,
        0,
        19,
        19,
        0,
        0,
        0,
        19,
        19,
        19,
        0,
        19,
        19,
        0,
        19,
        19,
        0,
        0,
        0,
        19,
        19,
        19,
        0,
        19,
        19,
        0,
        0,
        0,
        0,
        0,
        0,
        0,
        0,
        0,
        0,
        19,
        19,
        0,
        0,
        0,
        0,
        0,
        0,
        0,
        0,
        0,
        0,
        19,
        19,
        0,
        19,
        19,
        0,
        0,
        0,
        0,
        0,
        19,
        0,
        19,
        19,
        0,
        0,
        0,
        0,
        0,
        0,
        0,
        0,
        19,
        0,
        19,
        19,
        0,
        0,
        0,
        0,
        0,
        0,
        0,
        0,
        0,
        0,
        19,
        19,
        19,
        19,
        19,
        19,
        0,
        0,
        19,
        19,
        19,
        19,
        19
      ]
    },
    {
      "id": 4,
      "name": "gameplay",
      "type": "objectgroup",
      "draworder": "topdown",
      "opacity": 1,
      "visible": true,
      "x": 0,
      "y": 0,
      "objects": [
        {
          "id": 1,
          "name": "player_spawn",
          "type": "spawn",
          "point": true,
          "x": 176.0,
          "y": 240.0,
          "width": 0,
          "height": 0,
          "visible": true
        },
        {
          "id": 2,
          "name": "bed",
          "type": "interactable",
          "x": 64,
          "y": 64,
          "width": 64,
          "height": 64,
          "visible": true,
          "properties": [
            {
              "name": "stableId",
              "type": "string",
              "value": "bed"
            },
            {
              "name": "label",
              "type": "string",
              "value": "床"
            },
            {
              "name": "action",
              "type": "string",
              "value": "查看床"
            },
            {
              "name": "interactionRadius",
              "type": "int",
              "value": 40
            },
            {
              "name": "anchorX",
              "type": "string",
              "value": 80.0
            },
            {
              "name": "anchorY",
              "type": "string",
              "value": 112.0
            }
          ]
        },
        {
          "id": 3,
          "name": "desk",
          "type": "interactable",
          "x": 224,
          "y": 64,
          "width": 96,
          "height": 64,
          "visible": true,
          "properties": [
            {
              "name": "stableId",
              "type": "string",
              "value": "desk"
            },
            {
              "name": "label",
              "type": "string",
              "value": "书桌"
            },
            {
              "name": "action",
              "type": "string",
              "value": "查看书桌"
            },
            {
              "name": "interactionRadius",
              "type": "int",
              "value": 40
            },
            {
              "name": "anchorX",
              "type": "string",
              "value": 272.0
            },
            {
              "name": "anchorY",
              "type": "string",
              "value": 112.0
            }
          ]
        },
        {
          "id": 4,
          "name": "bookshelf",
          "type": "interactable",
          "x": 64,
          "y": 192,
          "width": 64,
          "height": 32,
          "visible": true,
          "properties": [
            {
              "name": "stableId",
              "type": "string",
              "value": "bookshelf"
            },
            {
              "name": "label",
              "type": "string",
              "value": "书架"
            },
            {
              "name": "action",
              "type": "string",
              "value": "查看书架"
            },
            {
              "name": "interactionRadius",
              "type": "int",
              "value": 40
            },
            {
              "name": "anchorX",
              "type": "string",
              "value": 80.0
            },
            {
              "name": "anchorY",
              "type": "string",
              "value": 208.0
            }
          ]
        },
        {
          "id": 5,
          "name": "wardrobe",
          "type": "landmark",
          "x": 288,
          "y": 192,
          "width": 32,
          "height": 64,
          "visible": true,
          "properties": [
            {
              "name": "stableId",
              "type": "string",
              "value": "wardrobe"
            },
            {
              "name": "label",
              "type": "string",
              "value": "衣柜"
            }
          ]
        },
        {
          "id": 6,
          "name": "exit",
          "type": "entrance",
          "x": 160,
          "y": 288,
          "width": 64,
          "height": 32,
          "visible": true,
          "properties": [
            {
              "name": "stableId",
              "type": "string",
              "value": "exit"
            },
            {
              "name": "label",
              "type": "string",
              "value": "返回校园"
            },
            {
              "name": "action",
              "type": "string",
              "value": "返回校园"
            },
            {
              "name": "targetScene",
              "type": "string",
              "value": "campus"
            },
            {
              "name": "interactionRadius",
              "type": "int",
              "value": 40
            },
            {
              "name": "targetTileX",
              "type": "int",
              "value": 7
            },
            {
              "name": "targetTileY",
              "type": "int",
              "value": 10
            },
            {
              "name": "anchorX",
              "type": "string",
              "value": 176.0
            },
            {
              "name": "anchorY",
              "type": "string",
              "value": 304.0
            }
          ]
        }
      ]
    }
  ]
}
